X:86
T:Katie Put Out the Dog
B:Terry "Cuz" Teahan "Sliabh Luachra on Parade" 1980
Z:Patrick Cavanagh
M:2/4
L:1/8
R:Polka
K:D
| eA BA | eA BA | GA Bd | GA Bd | 
eA BA | eA BA | GB dB | A2 A2 :| 
| ea bg | ea bg | ea ab | g2 ed | 
ea bg | ea bg | eg dB | A2 A2 :| 

